X:91
T:Greenland Whale Fishery - Gregory
%%VWML:SBG-1-2-196-0
F:http://www.vwml.org/record/SBG/1/2/196
Z:Original Sibelius transcriptions by M. & S. Graebe
L:1/8
M:4/4
I:linebreak $
K:G
 D | [G2D2] G2 G3 A | G2 FE D2 Bc | d2 d2 cB Ac | B6 D2 | G2 G2 G2 A2 | G2 FE D2 GB |$ Bc d2 cB AG | %8
w: ||||||||
 B2 D2 D2 GA | Bc d c BA G | G4 | x4 x2"^or else" Bc |$ d2 de d2 AB | cB AG FA GA | B2 B2 cB AG | %15
w: * Brave boys * *|||||||
 A2 D2 D2 x2 | %16
w: |
T:Greenland Whale Fishery - Ford
F:http://www.vwml.org/record/SBG/1/2/196
Z:Original Sibelius transcriptions by M. & S. Graebe
L:1/8
M:4/4
I:linebreak $
K:Bb
V:1 treble
V:2 treble 
V:1
 B | B3 B B2 F2 | B2 c2 de f2 | f2 f2 e2 d2 | c6 de | f2 f2 edcB |$ edcB BA GF | %7
"_sung in both ways" Bc f2 d2 c2 B2 | c2 F2 F2 Bc | de f2 edcB | B8 | %11
V:2
 x | x8 | x8 | x8 | x8 | x8 |$ x8 | B2 x2 x2 edcB | x8 | x8 | x8 | %11
T:Greenland Whale Fishery - Hard
F:http://www.vwml.org/record/SBG/1/2/196
Z:Original Sibelius transcriptions by M. & S. Graebe
L:1/4
M:4/4
I:linebreak $
K:G
 D | G G A A/G/ | F E D B | d B c/B/ A/G/ | A2 z A/B/ | d d c/B/ A/B/ |$ c/B/ A/G/ F G/A/ | %7
 B d c/B/ A/G/ | A !fermata!D !fermata!D G/A/ | B d A B | G2 z x | %11
T:Greenland Whale Fishery - Langworthy
F:http://www.vwml.org/record/SBG/1/2/196
Z:Original Sibelius transcriptions by M. & S. Graebe
M:4/4
I:linebreak $
K:D
V:1 treble nm="P1"
V:1
 (FG) | A2 A2 G2 EF | G2 FE D2 DE | F2 A2 G2 FE | E3 z z2 FG | A2 A2 G2 EF |$ G2 FE D2 EF | %7
 F2 F2 GF ED | E2 A,2 !fermata!A,2 D3/2 E/ | FG A2 E2 FE | D6 x2 | %11
T:Greenland Whale Fishery - Fone
F:http://www.vwml.org/record/SBG/1/2/196
Z:Original Sibelius transcriptions by M. & S. Graebe
L:1/4
M:4/4
I:linebreak $
K:C
 G | c c c e/d/ | c/B/ c G e/f/ | g g g f/e/ | f3 (3d/e/f/ | g (3g/f/e/ f d |$ f/e/d/c/ c/B/A/G/ | %7
 e e f | e d e | c G G c/d/ | e g d f/e/ | c2 x2 | %12




